X:1
T:Title
%%score { ( 1 3 ) | 2 }
L:1/8
M:4/4
K:F
V:1 treble nm="Grand Piano"
V:3 treble 
V:2 bass 
V:1
 z4 z2[Q:1/4=92] AB | c=Bdc A<F _BA | [DG]D^CD [DG]2 [DG][DG] | %3
 [Ec][EG][_E^F][=EG] [EA][EG][Ec][Ed] | A6 AB | c=Bdc A<F _BA |[M:3/4] [DG]D ^CD [DG]2 | %7
[M:1/4] [FA][FB] |[M:17/16] [Fc][Ff]3/2[CFc][CFA][CEc]<[DEB][CEA][B,EG] |[M:3/4] F6 |[M:1/4] AB | %11
[M:4/4] c=Bdc AF_BA | G6 z2 |[M:2/4] [Ec][EG] [_E^F][=EG] | [Ec]2 [Ed]2 |[M:4/4] A6 AB | %16
 c=Bdc A2 G[FA] |[M:7/8] [Fc][FB][^FA] [FB] [DG]3 |[M:1/4] [FA][FB] | %19
[M:17/16] [Fc][Ff]3/2[CFc][CFA][CEc]<[DEB][CEA][B,EG][Q:1/4=89][Q:1/4=86][Q:1/4=83][Q:1/4=81][Q:1/4=78][Q:1/4=75][Q:1/4=72] | %20
[M:7/4] [A,CF]6 z2 z2 z4 |] %21
V:2
 z4 z2 [F,CF][F,B,F] | [F,A,F][F,_A,F][F,B,F][F,=A,F] [F,CF]<[F,A,] [F,DF][F,CF] | %2
 [B,,B,][B,,F,B,][B,,E,B,][B,,F,B,] [B,,B,]2 [B,,B,][B,,B,] | %3
 [C,G,][C,C][C,A,][C,G,] [C,C][C,C][C,B,][C,B,] | [F,CF]6 [F,CF][G,CF] | %5
 [A,CF][_A,DF][B,F][=A,CF][K:bass] [F,CF]<[F,A,] [F,DF][F,CF] | %6
[M:3/4] [B,,B,][B,,F,B,] [B,,E,B,][B,,F,B,] [B,,B,]2 |[M:1/4] [D,B,][^C,B,] | %8
[M:17/16] [C,A,][A,C]3/2A,F,C,<C,C,C, |[M:3/4] [F,A,C]6 |[M:1/4] [F,CF][F,G,F] | %11
[M:4/4] [F,A,F][F,_A,F][F,B,F][F,=A,F] [F,CF][F,A,][F,DF][F,CF] | [B,D]2 =B,2 C2 [C,C][C,C] | %13
[M:2/4] [C,B,][C,B,] [C,A,][C,B,] | [C,G,]2 [C,B,]2 |[M:4/4][K:treble] [F,CF]6 [F,CF][G,CF] | %16
 [A,CF][_A,DF][B,F][=A,CF][K:bass] [F,CF]2 [E,C][_E,C] |[M:7/8] [D,B,][D,B,][D,C] [D,D] [G,B,]3 | %18
[M:1/4] [D,B,][^C,B,] |[M:17/16] [C,A,][A,C]3/2A,F,C,<C,C,C, |[M:7/4] F,6 z2 z2 z4 |] %21
V:3
 x8 | x8 | x8 | x8 | x8 | x8 |[M:3/4] x6 |[M:1/4] x2 |[M:17/16] x17/2 |[M:3/4] x6 |[M:1/4] x2 | %11
[M:4/4] x8 | z2 F2 E2 [EG][EG] |[M:2/4] x4 | x4 |[M:4/4] x8 | x8 |[M:7/8] x7 |[M:1/4] x2 | %19
[M:17/16] x17/2 |[M:7/4] x14 |] %21

